docs/assets/image/interpretable-by-design1.svg

<?xml version="1.0" encoding="utf-8"?>
<!-- Generator: Adobe Illustrator 21.1.0, SVG Export Plug-In . SVG Version: 6.00 Build 0)  -->
<svg version="1.1" id="Ebene_1" xmlns="http://www.w3.org/2000/svg" xmlns:xlink="http://www.w3.org/1999/xlink" x="0px" y="0px"
	 width="170.1px" height="170.1px" viewBox="0 0 170.1 170.1" style="enable-background:new 0 0 170.1 170.1;" xml:space="preserve"
	>
<style type="text/css">
	.st0{fill:#ADC913;}
</style>
<g>
	<path class="st0" d="M34.9,86.9l3.7,1.9c3.4,1.8,6,4.6,8,8l1.9,3.7c0.4,0.5,0.9,0.9,1.6,0.9s1.2-0.4,1.6-0.9l1.9-3.7
		c1.8-3.4,4.6-6,8-8l3.7-1.9c0.5-0.4,0.9-0.9,0.9-1.6c0-0.7-0.4-1.2-0.9-1.6l-3.7-1.9c-3.4-1.8-6-4.6-8-8L51.7,70
		C51,69,49.3,69,48.6,70l-1.9,3.7c-1.8,3.4-4.6,6-8,8l-3.7,1.9C34.4,84,34,84.6,34,85.3C33.9,85.8,34.2,86.5,34.9,86.9z M40.2,84.7
		c3.9-2.1,7.1-5.3,9.4-9.4l0.4-0.9l0.4,0.9c2.1,3.9,5.3,7.1,9.4,9.4l0.9,0.4l-0.9,0.4c-3.9,2.1-7.1,5.3-9.4,9.4L50,95.7l-0.4-0.9
		c-2.1-3.9-5.3-7.1-9.4-9.4l-0.9-0.4L40.2,84.7z"/>
	<path class="st0" d="M15.1,141.4l3.5,1.9c3.2,1.8,5.8,4.4,7.6,7.6l1.9,3.5c0.4,0.5,0.9,0.9,1.6,0.9s1.2-0.4,1.6-0.9l1.9-3.5
		c1.8-3.2,4.4-5.8,7.6-7.6l3.5-1.9c0.5-0.4,0.9-0.9,0.9-1.6c0-0.7-0.4-1.2-0.9-1.6l-3.5-1.9c-3.2-1.8-5.8-4.4-7.6-7.6l-1.9-3.5
		c-0.7-1.1-2.5-1.1-3.2,0l-1.9,3.5c-1.8,3.2-4.4,5.8-7.6,7.6l-3.5,1.9c-0.5,0.4-0.9,0.9-0.9,1.6C14.2,140.5,14.5,141.1,15.1,141.4z
		 M20.4,139.5c3.9-2.1,6.9-5.3,9-9l0.4-0.7l0.4,0.7c2.1,3.9,5.3,6.9,9,9l0.7,0.4l-0.7,0.4c-3.9,2.1-6.9,5.3-9,9l-0.4,0.7l-0.4-0.7
		c-2.1-3.9-5.3-6.9-9-9l-0.7-0.4L20.4,139.5z"/>
	<path class="st0" d="M123.5,32.5l3.7,2.1c3.5,1.9,6.4,4.8,8.3,8.3l2.1,3.9c0.4,0.5,0.9,0.9,1.6,0.9s1.2-0.4,1.6-0.9l2.1-3.9
		c1.9-3.5,4.8-6.4,8.3-8.3l3.7-2.1c0.5-0.4,0.9-0.9,0.9-1.6s-0.4-1.2-0.9-1.6l-3.7-2.1c-3.5-1.9-6.4-4.8-8.3-8.3l-2.1-3.9
		c-0.7-1.1-2.5-1.1-3.2,0l-2.1,3.9c-1.9,3.5-4.8,6.4-8.3,8.3l-3.7,2.1c-0.5,0.4-0.9,0.9-0.9,1.6S123,32.1,123.5,32.5z M129,30.3
		c4.1-2.3,7.4-5.7,9.7-9.7l0.5-0.9l0.5,0.9c2.3,4.1,5.7,7.4,9.7,9.7l0.9,0.5l-0.9,0.5c-4.1,2.3-7.4,5.7-9.7,9.7l-0.5,0.9l-0.5-0.9
		c-2.3-4.1-5.7-7.4-9.7-9.7l-0.9-0.5L129,30.3z"/>
	<path class="st0" d="M57.1,54.6l4.4,2.5c4.1,2.3,7.4,5.7,9.7,9.7l2.5,4.4c0.4,0.5,0.9,0.9,1.6,0.9c0.7,0,1.2-0.4,1.6-0.9l2.5-4.4
		c2.3-4.1,5.7-7.4,9.7-9.7l4.4-2.5c0.5-0.4,0.9-0.9,0.9-1.6c0-0.7-0.4-1.2-0.9-1.6l-4.4-2.5c-4.1-2.3-7.4-5.7-9.7-9.7l-2.5-4.4
		c-0.7-1.1-2.5-1.1-3.2,0l-2.5,4.4c-2.3,4.1-5.7,7.4-9.7,9.7l-4.4,2.5c-0.5,0.4-0.9,0.9-0.9,1.6C56.2,53.7,56.5,54.3,57.1,54.6z
		 M63.3,52.1c4.8-2.7,8.5-6.4,11.2-11.2l0.9-1.6l0.9,1.6c2.7,4.8,6.4,8.7,11.2,11.2l1.6,0.9l-1.6,0.9c-4.8,2.7-8.5,6.4-11.2,11.2
		l-0.9,1.6l-0.9-1.6c-2.7-4.8-6.4-8.7-11.2-11.2L61.7,53L63.3,52.1z"/>
	<path class="st0" d="M71.9,129.9c1.1,0,2.1,0,3.2-0.2c6.4,15.4,21.4,26.2,39,26.2c23,0,41.8-18.8,41.8-41.8
		c0-17.5-10.8-32.6-26.2-38.8c0.9-16.5-5.1-32.4-16.8-44.1c-10.8-11-25.3-17-40.9-17s-29.9,6-40.9,17C8.5,53.7,8.5,90.4,31.2,113.1
		C42,123.9,56.7,129.9,71.9,129.9z M85.9,140.2c-2.7-2.8-4.8-6-6.4-9.4c1.6-1.2,3.7-1.6,5.7-0.7c2.8,1.2,4.3,4.6,3,7.4
		C87.7,138.6,87,139.5,85.9,140.2z M107,151.7c-0.2-1.8,0.7-3.7,2.3-4.6c2.3-1.4,5.3-0.5,6.7,1.8c0.5,1.1,0.7,2.3,0.5,3.4
		c-0.9,0-1.8,0.2-2.5,0.2C111.6,152.4,109.3,152.2,107,151.7z M139.1,143c-1.8-1.2-2.7-3.2-2.3-5.3c0.4-3,3.2-5.1,6.2-4.8
		c1.2,0.2,2.5,0.9,3.4,1.8C144.2,137.9,141.9,140.7,139.1,143z M148.1,131.7c-1.2-1.1-2.8-1.9-4.6-2.1c-5-0.7-9.6,2.8-10.3,7.8
		c-0.4,3,0.7,6,3,8.1c-4.6,3.4-10.1,5.7-15.9,6.6c0.2-1.6-0.4-3.4-1.1-4.8c-2.3-4.1-7.4-5.3-11.5-3c-2.5,1.4-3.9,4.1-4.1,6.7
		c-5.7-1.6-10.8-4.4-15.1-8.3c1.2-1.1,2.3-2.3,3-3.9c1.9-4.8-0.4-10.1-5-12c-2.8-1.2-5.8-0.9-8.5,0.7c-1.6-4.1-2.3-8.7-2.3-13.3
		c0-8.7,2.8-16.7,7.8-23.2c1.2,1.4,2.8,2.5,4.6,3c0.9,0.2,1.8,0.4,2.7,0.4c1.6,0,3.2-0.4,4.6-1.2c2.1-1.2,3.7-3.2,4.4-5.7
		c0.9-2.8,0.2-5.8-1.6-8.1c4.8-2.1,10.1-3.4,15.8-3.4c4.8,0,9.4,0.9,13.6,2.5c-1.2,1.6-1.9,3.7-1.9,5.8c0,5.3,4.3,9.6,9.6,9.6
		c3.2,0,6.2-1.6,8-4.4c5.7,6.7,9,15.2,9,24.8C152.4,120.3,150.8,126.4,148.1,131.7z M95,80.8c1.4,1.4,1.9,3.5,1.2,5.7
		c-0.4,1.6-1.4,2.8-2.8,3.5c-1.4,0.7-3,0.9-4.4,0.5c-1.2-0.4-2.5-1.2-3.2-2.3C88.4,85.3,91.6,82.8,95,80.8z M130.9,79.8
		c3.5,1.8,6.9,4.1,9.7,6.9c-1.1,2.1-3.2,3.5-5.5,3.5c-3.4,0-6-2.7-6-6C129.2,82.4,129.7,80.8,130.9,79.8L130.9,79.8z M33.7,33.7
		C44,23.4,57.6,17.8,72.1,17.8s28.2,5.7,38.4,15.9c10.6,10.6,16.3,25.3,15.8,40.4c-3.9-1.2-8-1.8-12.2-1.8
		c-23,0-41.8,18.8-41.8,41.8c0,4.3,0.7,8.3,1.8,12.2c-15.1,0.5-29.6-5.1-40.4-15.9C12.4,89.3,12.4,54.8,33.7,33.7z"/>
	<path class="st0" d="M93.6,101.2c-5.8,0-10.8,4.8-10.8,10.8c0,5.8,4.8,10.8,10.8,10.8s10.8-4.8,10.8-10.8
		C104.2,106,99.4,101.2,93.6,101.2z M93.6,119.1c-3.9,0-7.3-3.2-7.3-7.3c0-3.9,3.2-7.3,7.3-7.3s7.3,3.2,7.3,7.3
		C100.6,115.9,97.5,119.1,93.6,119.1z"/>
	<path class="st0" d="M116.2,117.9c-5.5,0-9.9,4.4-9.9,9.9s4.4,9.9,9.9,9.9c5.5,0,9.9-4.4,9.9-9.9S121.7,117.9,116.2,117.9z
		 M116.2,134.2c-3.5,0-6.4-2.8-6.4-6.4s2.8-6.4,6.4-6.4c3.5,0,6.4,2.8,6.4,6.4S119.8,134.2,116.2,134.2z"/>
	<path class="st0" d="M137.3,102.8c-5.1,0-9.2,4.1-9.2,9.2c0,5.1,4.1,9.2,9.2,9.2c5.1,0,9.2-4.1,9.2-9.2
		C146.5,106.9,142.4,102.8,137.3,102.8z M137.3,117.7c-3.2,0-5.7-2.5-5.7-5.7c0-3.2,2.5-5.7,5.7-5.7c3.2,0,5.7,2.5,5.7,5.7
		C143,115.2,140.5,117.7,137.3,117.7z"/>
	<path class="st0" d="M115.9,107.2c5.3,0,9.6-4.3,9.6-9.6c0-5.3-4.3-9.6-9.6-9.6c-5.3,0-9.6,4.3-9.6,9.6
		C106.3,103,110.6,107.2,115.9,107.2z M115.9,91.6c3.4,0,6,2.7,6,6s-2.7,6-6,6c-3.4,0-6-2.7-6-6S112.5,91.6,115.9,91.6z"/>
</g>
</svg>

<?xml version="1.0" encoding="UTF-8" standalone="no"?>
<!DOCTYPE svg PUBLIC "-//W3C//DTD SVG 1.1//EN" "http://www.w3.org/Graphics/SVG/1.1/DTD/svg11.dtd">
<svg width="100%" height="100%" viewBox="0 0 171 171" version="1.1" xmlns="http://www.w3.org/2000/svg" xmlns:xlink="http://www.w3.org/1999/xlink" xml:space="preserve" xmlns:serif="http://www.serif.com/" style="fill-rule:evenodd;clip-rule:evenodd;stroke-linejoin:round;stroke-miterlimit:2;">
    <g>
        <path d="M34.9,86.9L38.6,88.8C42,90.6 44.6,93.4 46.6,96.8L48.5,100.5C48.9,101 49.4,101.4 50.1,101.4C50.8,101.4 51.3,101 51.7,100.5L53.6,96.8C55.4,93.4 58.2,90.8 61.6,88.8L65.3,86.9C65.8,86.5 66.2,86 66.2,85.3C66.2,84.6 65.8,84.1 65.3,83.7L61.6,81.8C58.2,80 55.6,77.2 53.6,73.8L51.7,70C51,69 49.3,69 48.6,70L46.7,73.7C44.9,77.1 42.1,79.7 38.7,81.7L35,83.6C34.4,84 34,84.6 34,85.3C33.9,85.8 34.2,86.5 34.9,86.9ZM40.2,84.7C44.1,82.6 47.3,79.4 49.6,75.3L50,74.4L50.4,75.3C52.5,79.2 55.7,82.4 59.8,84.7L60.7,85.1L59.8,85.5C55.9,87.6 52.7,90.8 50.4,94.9L50,95.7L49.6,94.8C47.5,90.9 44.3,87.7 40.2,85.4L39.3,85L40.2,84.7Z" style="fill:rgb(161,191,36);fill-rule:nonzero;"/>
        <path d="M15.1,141.4L18.6,143.3C21.8,145.1 24.4,147.7 26.2,150.9L28.1,154.4C28.5,154.9 29,155.3 29.7,155.3C30.4,155.3 30.9,154.9 31.3,154.4L33.2,150.9C35,147.7 37.6,145.1 40.8,143.3L44.3,141.4C44.8,141 45.2,140.5 45.2,139.8C45.2,139.1 44.8,138.6 44.3,138.2L40.8,136.3C37.6,134.5 35,131.9 33.2,128.7L31.3,125.2C30.6,124.1 28.8,124.1 28.1,125.2L26.2,128.7C24.4,131.9 21.8,134.5 18.6,136.3L15.1,138.2C14.6,138.6 14.2,139.1 14.2,139.8C14.2,140.5 14.5,141.1 15.1,141.4ZM20.4,139.5C24.3,137.4 27.3,134.2 29.4,130.5L29.8,129.8L30.2,130.5C32.3,134.4 35.5,137.4 39.2,139.5L39.9,139.9L39.2,140.3C35.3,142.4 32.3,145.6 30.2,149.3L29.8,150L29.4,149.3C27.3,145.4 24.1,142.4 20.4,140.3L19.7,139.9L20.4,139.5Z" style="fill:rgb(161,191,36);fill-rule:nonzero;"/>
        <path d="M123.5,32.5L127.2,34.6C130.7,36.5 133.6,39.4 135.5,42.9L137.6,46.8C138,47.3 138.5,47.7 139.2,47.7C139.9,47.7 140.4,47.3 140.8,46.8L142.9,42.9C144.8,39.4 147.7,36.5 151.2,34.6L154.9,32.5C155.4,32.1 155.8,31.6 155.8,30.9C155.8,30.2 155.4,29.7 154.9,29.3L151.2,27.2C147.7,25.3 144.8,22.4 142.9,18.9L140.8,15C140.1,13.9 138.3,13.9 137.6,15L135.5,18.9C133.6,22.4 130.7,25.3 127.2,27.2L123.5,29.3C123,29.7 122.6,30.2 122.6,30.9C122.6,31.6 123,32.1 123.5,32.5ZM129,30.3C133.1,28 136.4,24.6 138.7,20.6L139.2,19.7L139.7,20.6C142,24.7 145.4,28 149.4,30.3L150.3,30.8L149.4,31.3C145.3,33.6 142,37 139.7,41L139.2,41.9L138.7,41C136.4,36.9 133,33.6 129,31.3L128.1,30.8L129,30.3Z" style="fill:rgb(161,191,36);fill-rule:nonzero;"/>
        <path d="M57.1,54.6L61.5,57.1C65.6,59.4 68.9,62.8 71.2,66.8L73.7,71.2C74.1,71.7 74.6,72.1 75.3,72.1C76,72.1 76.5,71.7 76.9,71.2L79.4,66.8C81.7,62.7 85.1,59.4 89.1,57.1L93.5,54.6C94,54.2 94.4,53.7 94.4,53C94.4,52.3 94,51.8 93.5,51.4L89.1,48.9C85,46.6 81.7,43.2 79.4,39.2L76.9,34.8C76.2,33.7 74.4,33.7 73.7,34.8L71.2,39.2C68.9,43.3 65.5,46.6 61.5,48.9L57.1,51.4C56.6,51.8 56.2,52.3 56.2,53C56.2,53.7 56.5,54.3 57.1,54.6ZM63.3,52.1C68.1,49.4 71.8,45.7 74.5,40.9L75.4,39.3L76.3,40.9C79,45.7 82.7,49.6 87.5,52.1L89.1,53L87.5,53.9C82.7,56.6 79,60.3 76.3,65.1L75.4,66.7L74.5,65.1C71.8,60.3 68.1,56.4 63.3,53.9L61.7,53L63.3,52.1Z" style="fill:rgb(161,191,36);fill-rule:nonzero;"/>
        <path d="M71.9,129.9C73,129.9 74,129.9 75.1,129.7C81.5,145.1 96.5,155.9 114.1,155.9C137.1,155.9 155.9,137.1 155.9,114.1C155.9,96.6 145.1,81.5 129.7,75.3C130.6,58.8 124.6,42.9 112.9,31.2C102.1,20.2 87.6,14.2 72,14.2C56.4,14.2 42.1,20.2 31.1,31.2C8.5,53.7 8.5,90.4 31.2,113.1C42,123.9 56.7,129.9 71.9,129.9ZM85.9,140.2C83.2,137.4 81.1,134.2 79.5,130.8C81.1,129.6 83.2,129.2 85.2,130.1C88,131.3 89.5,134.7 88.2,137.5C87.7,138.6 87,139.5 85.9,140.2ZM107,151.7C106.8,149.9 107.7,148 109.3,147.1C111.6,145.7 114.6,146.6 116,148.9C116.5,150 116.7,151.2 116.5,152.3C115.6,152.3 114.7,152.5 114,152.5C111.6,152.4 109.3,152.2 107,151.7ZM139.1,143C137.3,141.8 136.4,139.8 136.8,137.7C137.2,134.7 140,132.6 143,132.9C144.2,133.1 145.5,133.8 146.4,134.7C144.2,137.9 141.9,140.7 139.1,143ZM148.1,131.7C146.9,130.6 145.3,129.8 143.5,129.6C138.5,128.9 133.9,132.4 133.2,137.4C132.8,140.4 133.9,143.4 136.2,145.5C131.6,148.9 126.1,151.2 120.3,152.1C120.5,150.5 119.9,148.7 119.2,147.3C116.9,143.2 111.8,142 107.7,144.3C105.2,145.7 103.8,148.4 103.6,151C97.9,149.4 92.8,146.6 88.5,142.7C89.7,141.6 90.8,140.4 91.5,138.8C93.4,134 91.1,128.7 86.5,126.8C83.7,125.6 80.7,125.9 78,127.5C76.4,123.4 75.7,118.8 75.7,114.2C75.7,105.5 78.5,97.5 83.5,91C84.7,92.4 86.3,93.5 88.1,94C89,94.2 89.9,94.4 90.8,94.4C92.4,94.4 94,94 95.4,93.2C97.5,92 99.1,90 99.8,87.5C100.7,84.7 100,81.7 98.2,79.4C103,77.3 108.3,76 114,76C118.8,76 123.4,76.9 127.6,78.5C126.4,80.1 125.7,82.2 125.7,84.3C125.7,89.6 130,93.9 135.3,93.9C138.5,93.9 141.5,92.3 143.3,89.5C149,96.2 152.3,104.7 152.3,114.3C152.4,120.3 150.8,126.4 148.1,131.7ZM95,80.8C96.4,82.2 96.9,84.3 96.2,86.5C95.8,88.1 94.8,89.3 93.4,90C92,90.7 90.4,90.9 89,90.5C87.8,90.1 86.5,89.3 85.8,88.2C88.4,85.3 91.6,82.8 95,80.8ZM130.9,79.8C134.4,81.6 137.8,83.9 140.6,86.7C139.5,88.8 137.4,90.2 135.1,90.2C131.7,90.2 129.1,87.5 129.1,84.2C129.2,82.4 129.7,80.8 130.9,79.8ZM33.7,33.7C44,23.4 57.6,17.8 72.1,17.8C86.6,17.8 100.3,23.5 110.5,33.7C121.1,44.3 126.8,59 126.3,74.1C122.4,72.9 118.3,72.3 114.1,72.3C91.1,72.3 72.3,91.1 72.3,114.1C72.3,118.4 73,122.4 74.1,126.3C59,126.8 44.5,121.2 33.7,110.4C12.4,89.3 12.4,54.8 33.7,33.7Z" style="fill:rgb(161,191,36);fill-rule:nonzero;"/>
        <path d="M93.6,101.2C87.8,101.2 82.8,106 82.8,112C82.8,117.8 87.6,122.8 93.6,122.8C99.6,122.8 104.4,118 104.4,112C104.2,106 99.4,101.2 93.6,101.2ZM93.6,119.1C89.7,119.1 86.3,115.9 86.3,111.8C86.3,107.9 89.5,104.5 93.6,104.5C97.7,104.5 100.9,107.7 100.9,111.8C100.6,115.9 97.5,119.1 93.6,119.1Z" style="fill:rgb(161,191,36);fill-rule:nonzero;"/>
        <path d="M116.2,117.9C110.7,117.9 106.3,122.3 106.3,127.8C106.3,133.3 110.7,137.7 116.2,137.7C121.7,137.7 126.1,133.3 126.1,127.8C126.1,122.3 121.7,117.9 116.2,117.9ZM116.2,134.2C112.7,134.2 109.8,131.4 109.8,127.8C109.8,124.2 112.6,121.4 116.2,121.4C119.7,121.4 122.6,124.2 122.6,127.8C122.6,131.4 119.8,134.2 116.2,134.2Z" style="fill:rgb(161,191,36);fill-rule:nonzero;"/>
        <path d="M137.3,102.8C132.2,102.8 128.1,106.9 128.1,112C128.1,117.1 132.2,121.2 137.3,121.2C142.4,121.2 146.5,117.1 146.5,112C146.5,106.9 142.4,102.8 137.3,102.8ZM137.3,117.7C134.1,117.7 131.6,115.2 131.6,112C131.6,108.8 134.1,106.3 137.3,106.3C140.5,106.3 143,108.8 143,112C143,115.2 140.5,117.7 137.3,117.7Z" style="fill:rgb(161,191,36);fill-rule:nonzero;"/>
        <path d="M115.9,107.2C121.2,107.2 125.5,102.9 125.5,97.6C125.5,92.3 121.2,88 115.9,88C110.6,88 106.3,92.3 106.3,97.6C106.3,103 110.6,107.2 115.9,107.2ZM115.9,91.6C119.3,91.6 121.9,94.3 121.9,97.6C121.9,100.9 119.2,103.6 115.9,103.6C112.5,103.6 109.9,100.9 109.9,97.6C109.9,94.3 112.5,91.6 115.9,91.6Z" style="fill:rgb(161,191,36);fill-rule:nonzero;"/>
    </g>
</svg>
